build/assets/images/icons/in.svg

<svg width="27" height="28" viewBox="0 0 27 28" fill="none" xmlns="http://www.w3.org/2000/svg">
<rect width="27" height="28" rx="13.5" fill="#E8EDF5"/>
<path d="M13.5 10.6055C11.75 10.6055 10.3555 12.0273 10.3555 13.75C10.3555 15.5 11.75 16.8945 13.5 16.8945C15.2227 16.8945 16.6445 15.5 16.6445 13.75C16.6445 12.0273 15.2227 10.6055 13.5 10.6055ZM13.5 15.8008C12.3789 15.8008 11.4492 14.8984 11.4492 13.75C11.4492 12.6289 12.3516 11.7266 13.5 11.7266C14.6211 11.7266 15.5234 12.6289 15.5234 13.75C15.5234 14.8984 14.6211 15.8008 13.5 15.8008ZM17.4922 10.4961C17.4922 10.0859 17.1641 9.75781 16.7539 9.75781C16.3438 9.75781 16.0156 10.0859 16.0156 10.4961C16.0156 10.9062 16.3438 11.2344 16.7539 11.2344C17.1641 11.2344 17.4922 10.9062 17.4922 10.4961ZM19.5703 11.2344C19.5156 10.25 19.2969 9.375 18.5859 8.66406C17.875 7.95312 17 7.73438 16.0156 7.67969C15.0039 7.625 11.9688 7.625 10.957 7.67969C9.97266 7.73438 9.125 7.95312 8.38672 8.66406C7.67578 9.375 7.45703 10.25 7.40234 11.2344C7.34766 12.2461 7.34766 15.2812 7.40234 16.293C7.45703 17.2773 7.67578 18.125 8.38672 18.8633C9.125 19.5742 9.97266 19.793 10.957 19.8477C11.9688 19.9023 15.0039 19.9023 16.0156 19.8477C17 19.793 17.875 19.5742 18.5859 18.8633C19.2969 18.125 19.5156 17.2773 19.5703 16.293C19.625 15.2812 19.625 12.2461 19.5703 11.2344ZM18.2578 17.3594C18.0664 17.9062 17.6289 18.3164 17.1094 18.5352C16.2891 18.8633 14.375 18.7812 13.5 18.7812C12.5977 18.7812 10.6836 18.8633 9.89062 18.5352C9.34375 18.3164 8.93359 17.9062 8.71484 17.3594C8.38672 16.5664 8.46875 14.6523 8.46875 13.75C8.46875 12.875 8.38672 10.9609 8.71484 10.1406C8.93359 9.62109 9.34375 9.21094 9.89062 8.99219C10.6836 8.66406 12.5977 8.74609 13.5 8.74609C14.375 8.74609 16.2891 8.66406 17.1094 8.99219C17.6289 9.18359 18.0391 9.62109 18.2578 10.1406C18.5859 10.9609 18.5039 12.875 18.5039 13.75C18.5039 14.6523 18.5859 16.5664 18.2578 17.3594Z" fill="#17479E"/>
</svg>

<svg width="27" height="28" fill="none" xmlns="http://www.w3.org/2000/svg"><rect width="27" height="28" rx="13.5" fill="#E8EDF5"/><path d="M13.5 10.605a3.145 3.145 0 00-3.145 3.145 3.128 3.128 0 003.145 3.145 3.145 3.145 0 003.145-3.145 3.163 3.163 0 00-3.145-3.145zm0 5.196a2.048 2.048 0 01-2.05-2.051c0-1.121.902-2.023 2.05-2.023 1.121 0 2.023.902 2.023 2.023 0 1.148-.902 2.05-2.023 2.05zm3.992-5.305a.735.735 0 00-.738-.738.735.735 0 00-.738.738c0 .41.328.738.738.738s.738-.328.738-.738zm2.078.738c-.054-.984-.273-1.859-.984-2.57-.711-.71-1.586-.93-2.57-.984-1.012-.055-4.047-.055-5.059 0-.984.054-1.832.273-2.57.984-.711.711-.93 1.586-.985 2.57-.054 1.012-.054 4.047 0 5.059.055.984.274 1.832.985 2.57.738.711 1.586.93 2.57.985 1.012.054 4.047.054 5.059 0 .984-.055 1.859-.274 2.57-.985.71-.738.93-1.586.984-2.57.055-1.012.055-4.047 0-5.059zm-1.312 6.125c-.192.547-.63.957-1.149 1.176-.82.328-2.734.246-3.609.246-.902 0-2.816.082-3.61-.246a2.074 2.074 0 01-1.175-1.176c-.328-.793-.246-2.707-.246-3.609 0-.875-.082-2.79.246-3.61A2.11 2.11 0 019.89 8.993c.793-.328 2.707-.246 3.609-.246.875 0 2.79-.082 3.61.246.519.192.93.63 1.148 1.149.328.82.246 2.734.246 3.609 0 .902.082 2.816-.246 3.61z" fill="#17479E"/></svg>
